X:16
T: Der Ring
N: D0016
O: Europa, Mitteleuropa, Lothringen, Weiler
N: Verzierungen; Inzipit = Transposition zum Lied
R: Liebes - Lied
M: 2/4
L: 1/8
K: E
E | E=GFE | =D2D2 | =GBBA | B2z
E | E=GFE | =D2D2 | =GBBA | B2
=GA | BBB=c | B2A=G | A2
A=c | B2EF | E2=D=C | =D2
FA | =G2FF | E2z

